X: 4111
T: Johnnny Faa.   the Gypsie Laddie.
%R: air, march
N: This is version 1, for ABC software that doesn't understand voice overlays.
B: Niel Gow & Sons "Complete Repository" v.4 p.11 #2 (with top 2 staves continued from p.10)
Z: 2021 John Chambers <jc:trillian.mit.edu>
M: C
L: 1/8
Q: "SLOW"
K: A
% - - - - - - - - - -
V: 1 staves=2
|:\
E2~EF A2(c/B/A/G/) | {G}FEFA [B3G3][cA] | E2EF .A(cBA) | TF3E [E4C4] :: B2Bc e3f | ecTBA A>B (A/B/c) |
B2TB>c e2f>e | (d2c2) B2A2 | B2TB>c e2f>e | (dc)(BA) AB {AB}Hc2 | E2~EF .A(cBA) | TF3E [E4C4] :|
% - - - - - - - - - -
V: 2 clef=bass middle=d
|:\
[c2a2][ca2]d [c2a2]A2 | dcd[B^d] efga | [c3a4]d .c(ABc) | (defg) a4 ::\
[g3e'3][ae'] [a2c'2e'2][a2d'2f'2] | c'a ga cea2 |
[g3e'3][ae'3] [c'2e'2]d'>c' |  [g2b2e'2][a2e'2] [g2d'2e4] [a2c'2] | [g3e'3][ae'] c'2d'>c' |\
f'e'd'c' c'g Ha2 | [c3a4]d .c(ABc) | (defg) a4 :|
